docs/.gitbook/assets/icon-folder-16@light.svg

<svg width="32" height="32" viewBox="0 0 16 16" fill="none" xmlns="http://www.w3.org/2000/svg">
<rect x="0" y="0" width="16" height="16" fill="#fff"/>
<path fill-rule="evenodd" clip-rule="evenodd" d="M3.75 2.5C3.05964 2.5 2.5 3.05964 2.5 3.75V4H7.97217L7.03319 2.92687C6.79582 2.6556 6.45292 2.5 6.09246 2.5L3.75 2.5ZM10.0788 4L13.25 4C14.2165 4 15 4.7835 15 5.75V12.25C15 13.7688 13.7688 15 12.25 15H3.75C2.23122 15 1 13.7688 1 12.25L1 4.75V3.75C1 2.23122 2.23122 1 3.75 1L6.09246 1C6.88546 1 7.63986 1.34232 8.16205 1.93911L7.59762 2.43299L8.16205 1.93911L9.89062 3.91463C9.9381 3.96888 10.0067 4 10.0788 4ZM2.5 5.5L2.5 12.25C2.5 12.9404 3.05964 13.5 3.75 13.5H12.25C12.9404 13.5 13.5 12.9404 13.5 12.25V5.75C13.5 5.61193 13.3881 5.5 13.25 5.5H10.0788H2.5Z" fill="#000"/>
</svg>

<svg xmlns="http://www.w3.org/2000/svg" width="32" height="32" fill="none" viewBox="0 0 16 16"><path fill="#fff" d="M0 0h16v16H0z"/><path fill="#000" fill-rule="evenodd" d="M3.75 2.5c-.69 0-1.25.56-1.25 1.25V4h5.472l-.939-1.073a1.25 1.25 0 0 0-.94-.427zM10.079 4h3.171c.966 0 1.75.784 1.75 1.75v6.5A2.75 2.75 0 0 1 12.25 15h-8.5A2.75 2.75 0 0 1 1 12.25v-8.5A2.75 2.75 0 0 1 3.75 1h2.342a2.75 2.75 0 0 1 2.07.94l-.564.493.564-.494 1.729 1.976a.25.25 0 0 0 .188.085M2.5 5.5v6.75c0 .69.56 1.25 1.25 1.25h8.5c.69 0 1.25-.56 1.25-1.25v-6.5a.25.25 0 0 0-.25-.25z" clip-rule="evenodd"/></svg>
